X:1
T: The Boys of Galway
C:
R:Reel
Q: 232
K:C
M:4/4
L:1/8
|:B|cd ed cB AG|Ad dc dc AB|cd ed cB AG|Ac GE ED DB|
cd ed cB AG|Ad dc dc AB|cA BG AF GE|FD GF EC Cf|
ga ge cB cd|ea ag ag ef|ga ge cB cd|ea ag ed de|
ga ge cB cd|ea ag ag ef|ge fd ec dc|Bc df ed d:|
